X: 1
T: Terribus
B: BSFC V-22
Z: John Chambers <jc:trillian.mit.edu>
M: 2/4
L: 1/8
K: D
A \
|  "D"dA d>e | fa fd | "Em"g>f e>d | "A7"ce cA \
|  "D"dA d>e | fa fd | "Em"g>f e>a |1 "D"fd d :|2 "D"fd d/e/f/g/ |]
[| "D"a2 a>g | fa fd | "Em"g>f e>d | "A7"ce cA \
|  "D"a2 a>g | fa fd | "Em"g>f e>a | "D"fd d/e/f/g/ ||
|| "D"a2 a>g | fa fd | "Em"g>f e>d | "A7"ce cA \
|  "D"dA d>e | fa fd | "Em"g>f e>a | "D"fd d2 |]
